T: Kickin' Up The Devil On A Holiday
M: 4/4
L: 1/8
K: Bmin
|d2Bd cBAc|BABd e2 Be|dBcA B2AF|1 ~F3D EEBe:|2 FFED EEED||!E2EE FEFA|B2BB BABc|d2Bc d2Bc|dcde dBAF|!E2 ED EEGA|B2BB eBBc|dBcA BBAF|1 FFED EEED|2 FFED EEBe|]
